rospo-icon-theme-classic-common/64x64/apps/pingus-icon.svg

<svg height="64" viewBox="0 0 64 64" width="64" xmlns="http://www.w3.org/2000/svg"><circle cx="32" cy="33" opacity=".2" r="28"/><circle cx="32" cy="32" fill="#4f4f4f" r="28"/><path d="m20.999986 30a10.999985 10.639279 0 0 0 -10.602526 7.849976c-.249722.561788-.39746 1.21666-.39746 2.003188 0 .12048.01864.237126.02148.357056a10.999985 10.639279 0 0 0 -.02148.430568 10.999985 10.639279 0 0 0  .76538 3.896108c2.50722 7.74777 11.051546 13.463104 21.23459 13.463104 10.241368 0 18.823254-5.781462 21.274874-13.596998a10.999985 10.639279 0 0 0  .725098-3.762214 10.999985 10.639279 0 0 0 -.0188-.496204c.0019-.098.0188-.19306.0188-.29142 0-.762322-.14078-1.399878-.375978-1.95068a10.999985 10.639279 0 0 0 -10.624008-7.902484 10.999985 10.639279 0 0 0 -10.87645 9.131176c-.0116.0048-.12354.04988-.12354.04988s-.11198-.04502-.12354-.04988a10.999985 10.639279 0 0 0 -10.87644-9.131176z" opacity=".2"/><path d="m20.999986 29a10.999985 10.639279 0 0 0 -10.602526 7.849976c-.249722.561788-.39746 1.21666-.39746 2.003188 0 .12048.01864.237126.02148.357056a10.999985 10.639279 0 0 0 -.02148.430568 10.999985 10.639279 0 0 0  .76538 3.896108c2.50722 7.74777 11.051546 13.463104 21.23459 13.463104 10.241368 0 18.823254-5.781462 21.274874-13.596998a10.999985 10.639279 0 0 0  .725098-3.762214 10.999985 10.639279 0 0 0 -.0188-.496204c.0019-.098.0188-.19306.0188-.29142 0-.762322-.14078-1.399878-.375978-1.95068a10.999985 10.639279 0 0 0 -10.624008-7.902484 10.999985 10.639279 0 0 0 -10.87645 9.131176c-.0116.0048-.12354.04988-.12354.04988s-.11198-.04502-.12354-.04988a10.999985 10.639279 0 0 0 -10.87644-9.131176z" fill="#fff"/><circle cx="24" cy="41" fill="#3f3f3f" r="3"/><circle cx="40" cy="41" fill="#3f3f3f" r="3"/><path d="m20.779291 31.72315h4 4l-2 3.464101-2 3.464102-2-3.464102z" fill="#e31b1b" opacity=".767" transform="matrix(1.5 0 0 1.2990381 -5.168937 3.79042)"/><path d="m32 4a28 28 0 0 0 -28 28 28 28 0 0 0  .0175781.492188 28 28 0 0 1 27.9824219-27.492188 28 28 0 0 1 27.974609 27.492188 28 28 0 0 0  .025391-.492188 28 28 0 0 0 -28-28z" fill="#fff" opacity=".1"/></svg>

<svg xmlns="http://www.w3.org/2000/svg" width="64" height="64" version="1.1" viewBox="0 0 64 64">
 <circle cx="32" cy="33" r="28" style="opacity:0.2"/>
 <circle style="fill:#4f4f4f" cx="32" cy="32" r="28"/>
 <path d="M 20.999986,30 A 10.999985,10.639279 0 0 0 10.39746,37.849976 C 10.147738,38.411764 10,39.066636 10,39.853164 c 0,0.12048 0.01864,0.237126 0.02148,0.357056 A 10.999985,10.639279 0 0 0 10,40.640788 10.999985,10.639279 0 0 0 10.76538,44.536896 C 13.2726,52.284666 21.816926,58 31.99997,58 42.241338,58 50.823224,52.218538 53.274844,44.403002 a 10.999985,10.639279 0 0 0 0.725098,-3.762214 10.999985,10.639279 0 0 0 -0.0188,-0.496204 c 0.0019,-0.098 0.0188,-0.19306 0.0188,-0.29142 0,-0.762322 -0.14078,-1.399878 -0.375978,-1.95068 A 10.999985,10.639279 0 0 0 42.999956,30 10.999985,10.639279 0 0 0 32.123506,39.131176 c -0.0116,0.0048 -0.12354,0.04988 -0.12354,0.04988 0,0 -0.11198,-0.04502 -0.12354,-0.04988 A 10.999985,10.639279 0 0 0 20.999986,30 Z" style="opacity:0.2"/>
 <path style="fill:#ffffff" d="M 20.999986,29 A 10.999985,10.639279 0 0 0 10.39746,36.849976 C 10.147738,37.411764 10,38.066636 10,38.853164 c 0,0.12048 0.01864,0.237126 0.02148,0.357056 A 10.999985,10.639279 0 0 0 10,39.640788 10.999985,10.639279 0 0 0 10.76538,43.536896 C 13.2726,51.284666 21.816926,57 31.99997,57 42.241338,57 50.823224,51.218538 53.274844,43.403002 a 10.999985,10.639279 0 0 0 0.725098,-3.762214 10.999985,10.639279 0 0 0 -0.0188,-0.496204 c 0.0019,-0.098 0.0188,-0.19306 0.0188,-0.29142 0,-0.762322 -0.14078,-1.399878 -0.375978,-1.95068 A 10.999985,10.639279 0 0 0 42.999956,29 10.999985,10.639279 0 0 0 32.123506,38.131176 c -0.0116,0.0048 -0.12354,0.04988 -0.12354,0.04988 0,0 -0.11198,-0.04502 -0.12354,-0.04988 A 10.999985,10.639279 0 0 0 20.999986,29 Z"/>
 <circle style="fill:#3f3f3f" cx="24" cy="41" r="3"/>
 <circle cx="40" cy="41" r="3" style="fill:#3f3f3f"/>
 <path style="opacity:0.76700003;fill:#e31b1b" d="m 20.779291,31.72315 4,0 4,0 -2,3.464101 -2,3.464102 -2,-3.464102 z" transform="matrix(1.5,0,0,1.2990381,-5.1689372,3.79042)"/>
 <path style="opacity:0.1;fill:#ffffff" d="M 32 4 A 28 28 0 0 0 4 32 A 28 28 0 0 0 4.0175781 32.492188 A 28 28 0 0 1 32 5 A 28 28 0 0 1 59.974609 32.492188 A 28 28 0 0 0 60 32 A 28 28 0 0 0 32 4 z"/>
</svg>
